icons/book-open.svg

<svg width="24" height="24" viewBox="0 0 24 24" fill="none" xmlns="http://www.w3.org/2000/svg">
<path fill-rule="evenodd" clip-rule="evenodd" d="M2 4C2 3.44772 2.44772 3 3 3H10C10.7684 3 11.4692 3.28885 12 3.7639C12.5308 3.28885 13.2316 3 14 3H21C21.5523 3 22 3.44772 22 4V20C22 20.5523 21.5523 21 21 21H13V22C13 22.5523 12.5523 23 12 23C11.4477 23 11 22.5523 11 22V21H3C2.44772 21 2 20.5523 2 20V4ZM13 19H20V5H14C13.4477 5 13 5.44772 13 6V19ZM11 6V19H4V5H10C10.5523 5 11 5.44772 11 6Z" fill="black"/>
</svg>

<svg
  width="24"
  height="24"
  viewBox="0 0 24 24"
  xmlns="http://www.w3.org/2000/svg"
>
  <path
    fill-rule="evenodd"
    clip-rule="evenodd"
    d="M2 4a1 1 0 0 1 1-1h7c.768 0 1.47.289 2 .764A2.989 2.989 0 0 1 14 3h7a1 1 0 0 1 1 1v16a1 1 0 0 1-1 1h-8v1a1 1 0 1 1-2 0v-1H3a1 1 0 0 1-1-1V4zm11 15h7V5h-6a1 1 0 0 0-1 1v13zM11 6v13H4V5h6a1 1 0 0 1 1 1z"
  />
</svg>
